X:622
T:Garster's Dream
S:Sessions etc
Z:Nigel Gatherer
M:6/8
L:1/8
K:G
D | G2B BGB | cdc BAG | FGA ABA | AdB AFD |
    G2B BGB | cdc BAG | F2E DEF | G3  G  :|
d | gag gdB | ABA AGE | gag gdB | ded def |
    gag gdB | AcB AGE | G2E DEF | G3  G2 :|]
<end>
<start>
